packages/core/src/svgs/tokens/branded/LOOKS.svg

<svg width="24" height="24" viewBox="0 0 24 24" fill="none" xmlns="http://www.w3.org/2000/svg">
<path fill-rule="evenodd" clip-rule="evenodd" d="M22 10.0555L16 4.22224H8L2 10.0555L12 19.7778L22 10.0555ZM19.2222 10.3333C19.2222 10.3333 12.5777 0.333354 4.77778 10.3333C12.5556 20.3334 19.2222 10.3333 19.2222 10.3333Z" fill="#04CD58"/>
<path fill-rule="evenodd" clip-rule="evenodd" d="M15.3336 10.3333C15.3336 9.89558 15.2474 9.46222 15.0799 9.05778C14.9124 8.65334 14.6669 8.28586 14.3574 7.97633C14.0478 7.66682 13.6803 7.42128 13.276 7.25376C12.8715 7.08624 12.4381 7.00003 12.0003 7.00003C11.5625 7.00003 11.1292 7.08624 10.7247 7.25376C10.3203 7.42128 9.9528 7.66682 9.64325 7.97633C9.33378 8.28586 9.08824 8.65334 8.92073 9.05778C8.75321 9.46222 8.66699 9.89558 8.66699 10.3333C8.66699 11.2174 9.01818 12.0653 9.64325 12.6904C10.2684 13.3155 11.1162 13.6666 12.0003 13.6666C12.8844 13.6666 13.7323 13.3155 14.3574 12.6904C14.9824 12.0653 15.3336 11.2174 15.3336 10.3333ZM13.6669 10.3333C13.6669 9.8913 13.4914 9.46741 13.1789 9.15487C12.8662 8.84234 12.4423 8.66669 12.0003 8.66669C11.0725 8.66669 10.3337 9.40558 10.3337 10.3333C10.3337 11.2611 11.0725 12 12.0003 12C12.9281 12 13.6669 11.2611 13.6669 10.3333Z" fill="#F0F3FA"/>
</svg>

<svg xmlns="http://www.w3.org/2000/svg" width="24" height="24" fill="none" viewBox="0 0 24 24">
    <path fill="#04CD58" fill-rule="evenodd" d="m22 10.056-6-5.834H8l-6 5.834 10 9.722zm-2.778.277s-6.644-10-14.444 0c7.778 10 14.444 0 14.444 0" clip-rule="evenodd"/>
    <path fill="#F0F3FA" fill-rule="evenodd" d="M15.334 10.333a3.333 3.333 0 1 0-6.667 0 3.333 3.333 0 0 0 6.667 0m-1.667 0A1.667 1.667 0 0 0 12 8.667c-.928 0-1.666.739-1.666 1.666 0 .928.739 1.667 1.666 1.667.928 0 1.667-.739 1.667-1.667" clip-rule="evenodd"/>
</svg>
